symbols/web/repeat_on/materialsymbolsoutlined/repeat_on_grad200_40px.svg

<svg xmlns="http://www.w3.org/2000/svg" height="40" width="40"><path d="M4.25 39.25q-1.417 0-2.458-1.042Q.75 37.167.75 35.75V4.208q0-1.416 1.042-2.458Q2.833.708 4.25.708h31.542q1.416 0 2.458 1.042 1.042 1.042 1.042 2.458V35.75q0 1.417-1.042 2.458-1.042 1.042-2.458 1.042Zm7.208-1.792 2.459-2.541L10.958 32h21.375V21.75h-3.5v6.75H10.958l2.959-2.958L11.458 23l-7.25 7.25Zm-3.75-19.25h3.5v-6.75h17.875l-2.958 2.959 2.458 2.541 7.25-7.25-7.25-7.208-2.458 2.542 2.958 2.916H7.708Z"/></svg>

<svg xmlns="http://www.w3.org/2000/svg" height="40" width="40"><path d="M4.25 39.25Q2.833 39.25 1.792 38.208Q0.75 37.167 0.75 35.75V4.208Q0.75 2.792 1.792 1.75Q2.833 0.708 4.25 0.708H35.792Q37.208 0.708 38.25 1.75Q39.292 2.792 39.292 4.208V35.75Q39.292 37.167 38.25 38.208Q37.208 39.25 35.792 39.25ZM11.458 37.458 13.917 34.917 10.958 32H32.333V21.75H28.833V28.5H10.958L13.917 25.542L11.458 23L4.208 30.25ZM7.708 18.208H11.208V11.458H29.083L26.125 14.417L28.583 16.958L35.833 9.708L28.583 2.5L26.125 5.042L29.083 7.958H7.708Z"/></svg>
